img/book-1.svg

<svg xmlns="http://www.w3.org/2000/svg" viewBox="0 0 36 36"><path d="M8.2597656.140625C4.2397656.140625.890625 2.64.890625 5.5v26.550781c0 2.2 1.8188281 3.978516 4.0488281 3.978516H27.189453c1.64 0 3.049688-.969609 3.679688-2.349609a3.98 3.98 0 0 0 2.390625-3.628907v-.541015a3.97 3.97 0 0 0 2.019531-3.449219V5.5c0-3.05-2.299453-5.359375-5.439453-5.359375H8.2597656zm1.4199219 2.3789062H28.140625c2.68 1e-7 4.648437 2.0003907 4.648437 4.6503907L32.800781 25a3.46 3.46 0 0 1-1.740234 3.007812v.462891a3.46 3.46 0 0 1-2.058594 3.130859 3.46 3.46 0 0 1-3.132812 2.058594H6.8398438a3.46 3.46 0 0 1-3.4589844-3.460937V7.1699219c0-2.49 2.8688281-4.6503907 6.2988281-4.6503907z"/><path fill="#a0041e" d="M32.8 25a3.46 3.46 0 0 1-3.47 3.47H6.84A3.46 3.46 0 0 1 3.38 25V7.98c0-1.91 5.01-5.46 6.92-5.46h17.84c2.68 0 4.65 2 4.65 4.65z"/><path fill="#ccd6dd" d="M31.06 28.47a3.46 3.46 0 0 1-3.46 3.46H8.57a3.46 3.46 0 0 1-3.46-3.46V7.7c0-3.57-.02-3.46 4.33-3.46H27.6a3.46 3.46 0 0 1 3.46 3.46z"/><path fill="#e1e8ed" d="M29.33 29.33a2.6 2.6 0 0 1-2.6 2.6H5.99a2.6 2.6 0 0 1-2.6-2.6V8.57a2.6 2.6 0 0 1 2.6-2.6h20.76a2.6 2.6 0 0 1 2.6 2.6z"/><path fill="#be1931" d="M29.33 30.2a3.46 3.46 0 0 1-3.46 3.46H7.71a3.46 3.46 0 0 1-3.46-3.46V11.17A3.46 3.46 0 0 1 7.7 7.7h18.16a3.46 3.46 0 0 1 3.46 3.46z"/><path fill="#dd2e44" d="M27.6 30.2a3.46 3.46 0 0 1-3.46 3.46H7.71a3.46 3.46 0 0 1-3.46-3.46V12.9A3.46 3.46 0 0 1 7.7 9.44h16.72c1.91 0 3.17 1.26 3.17 3.17z"/><path fill="#a0041e" d="M7.7 7.7c-1.45 0-1.5-1.66-.86-2.37.72-.82 1.84-1.08 3.84-1.08h1.35V2.52H9.68c-3.43 0-6.3 2.16-6.3 4.65V30.2a3.46 3.46 0 0 0 3.46 3.46h1.73V7.7Z"/></svg>

<?xml version="1.0" encoding="UTF-8" standalone="no"?>
<svg
   viewBox="0 0 36 36"
   version="1.1"
   id="svg7"
   sodipodi:docname="book-1.svg"
   inkscape:version="1.4 (86a8ad7, 2024-10-11)"
   xmlns:inkscape="http://www.inkscape.org/namespaces/inkscape"
   xmlns:sodipodi="http://sodipodi.sourceforge.net/DTD/sodipodi-0.dtd"
   xmlns="http://www.w3.org/2000/svg"
   xmlns:svg="http://www.w3.org/2000/svg">
  <defs
     id="defs7" />
  <sodipodi:namedview
     id="namedview7"
     pagecolor="#ffffff"
     bordercolor="#000000"
     borderopacity="0.25"
     inkscape:showpageshadow="2"
     inkscape:pageopacity="0.0"
     inkscape:pagecheckerboard="0"
     inkscape:deskcolor="#d1d1d1"
     inkscape:zoom="16.361665"
     inkscape:cx="10.940207"
     inkscape:cy="16.593665"
     inkscape:window-width="1920"
     inkscape:window-height="1027"
     inkscape:window-x="-8"
     inkscape:window-y="-8"
     inkscape:window-maximized="1"
     inkscape:current-layer="svg7" />
  <path
     id="path1"
     d="M 8.2597656 0.140625 C 4.2397656 0.140625 0.890625 2.64 0.890625 5.5 L 0.890625 32.050781 C 0.890625 34.250781 2.7094531 36.029297 4.9394531 36.029297 L 27.189453 36.029297 C 28.829453 36.029297 30.239141 35.059688 30.869141 33.679688 A 3.98 3.98 0 0 0 33.259766 30.050781 L 33.259766 29.509766 A 3.97 3.97 0 0 0 35.279297 26.060547 L 35.279297 5.5 C 35.279297 2.45 32.979844 0.140625 29.839844 0.140625 L 8.9804688 0.140625 L 8.2597656 0.140625 z M 9.6796875 2.5195312 L 10.300781 2.5195312 L 12.029297 2.5195312 L 28.140625 2.5195312 C 30.820625 2.5195313 32.789062 4.5199219 32.789062 7.1699219 L 32.800781 25 A 3.46 3.46 0 0 1 31.060547 28.007812 L 31.060547 28.470703 A 3.46 3.46 0 0 1 29.001953 31.601562 A 3.46 3.46 0 0 1 25.869141 33.660156 L 8.5703125 33.660156 L 6.8398438 33.660156 A 3.46 3.46 0 0 1 3.3808594 30.199219 L 3.3808594 25 L 3.3808594 7.9804688 L 3.3808594 7.1699219 C 3.3808594 4.6799219 6.2496875 2.5195312 9.6796875 2.5195312 z " />
  <path
     fill="#a0041e"
     d="M32.8 25a3.46 3.46 0 0 1-3.47 3.47H6.84A3.46 3.46 0 0 1 3.38 25V7.98c0-1.91 5.01-5.46 6.92-5.46h17.84c2.68 0 4.65 2 4.65 4.65z"
     id="path2" />
  <path
     fill="#ccd6dd"
     d="M31.06 28.47a3.46 3.46 0 0 1-3.46 3.46H8.57a3.46 3.46 0 0 1-3.46-3.46V7.7c0-3.57-.02-3.46 4.33-3.46H27.6a3.46 3.46 0 0 1 3.46 3.46z"
     id="path3" />
  <path
     fill="#e1e8ed"
     d="M29.33 29.33a2.6 2.6 0 0 1-2.6 2.6H5.99a2.6 2.6 0 0 1-2.6-2.6V8.57a2.6 2.6 0 0 1 2.6-2.6h20.76a2.6 2.6 0 0 1 2.6 2.6z"
     id="path4" />
  <path
     fill="#be1931"
     d="M29.33 30.2a3.46 3.46 0 0 1-3.46 3.46H7.71a3.46 3.46 0 0 1-3.46-3.46V11.17A3.46 3.46 0 0 1 7.7 7.7h18.16a3.46 3.46 0 0 1 3.46 3.46z"
     id="path5" />
  <path
     fill="#dd2e44"
     d="M27.6 30.2a3.46 3.46 0 0 1-3.46 3.46H7.71a3.46 3.46 0 0 1-3.46-3.46V12.9A3.46 3.46 0 0 1 7.7 9.44h16.72c1.91 0 3.17 1.26 3.17 3.17z"
     id="path6" />
  <path
     fill="#a0041e"
     d="M7.7 7.7c-1.45 0-1.5-1.66-.86-2.37.72-.82 1.84-1.08 3.84-1.08h1.35V2.52H9.68c-3.43 0-6.3 2.16-6.3 4.65V30.2a3.46 3.46 0 0 0 3.46 3.46h1.73V7.7Z"
     id="path7" />
</svg>
